X:1
T:Title
%%score 1 2
L:1/8
Q:1/4=100
M:4/4
K:G
V:1 treble nm="Strings 1, Soprano"
V:2 bass nm="Strings 1, Bass"
V:1
 [B,D]2 [B,D]>[B,D] [B,G]2 [B,G]2 | [DB]2 [DB]>[DA] [DG]4 | [DG]2 [DG]>[DG] [DB]2 [DB]2 | %3
w: 1.~Might y~ to~ save,~ and~|might y~ to~ keep,~|Grace~ like~ the~ o cean,~|
 [Gd]2 [Gd]>[GB] [FA]4 | [GB]2 [GB]>[FA] [EG]2 [EG]2 | [EG]2 [EG]>[^DF] E2 [CE]2 | %6
w: bound less~ and~ deep;~|Will~ you~ be lieve~ it?~|will~ you~ re ceive~ it?~|
 D2 [Dc]>[DB] [DA]2 [DA]2 | [DG]6 z2 | [Gd]2 [Gd]>[Gd] [Gc]3 [Gc] | [FB]2 [FA]2 G2 =F2 | %10
w: Life~ ev er last ing~|reap?~|||
 [Ec]2 [Gc]>[Gc] [GB]3 [GB] | [EA]2 [^CG]2 [DF]4 | [B,D]2 [DB]>[CA] [B,G]2 [B,D]2 | %13
w: |||
 [CE]2 [Ec]>[^DB] [=DA]2 D2 | GABc d2 [Gc]2 | [GB]2 [DA]2 [DG]4 |] %16
w: |||
V:2
 [G,,G,]2 [G,,G,]>[G,,G,] [G,,D,]2 [G,,D,]2 | [G,,G,]2 [G,,D]>[G,,C] [G,,B,]4 | %2
 [G,B,]2 [G,B,]>[G,B,] G,2 G,2 | [G,B,]2 [G,B,]>[G,D] [D,D]4 | [G,D]2 [G,D]>[D,C] [E,B,]2 [E,B,]2 | %5
 [E,B,]2 [E,B,]>[B,,A,] [C,G,]2 [C,G,]2 | [B,,G,]2 [A,,F,]>[G,,G,] [D,C]2 [D,C]2 | [G,,G,B,]6 z2 | %8
 [G,B,]2 [G,B,]>[G,B,] [C,E]3 [C,E] | [D,D]2 [D,C]2 [G,,G,B,]4 | %10
 [C,E]2 [C,E]>[C,E] [G,,D]3 [G,,D] | [A,,^C]2 [A,,B,]2 [D,A,]4 | %12
 [G,,G,]2 [G,,G,]>[G,,D,] [G,,D,]2 [G,,G,]2 | [C,G,]2 [C,G,]>[C,G,] [D,F,]2 [D,F,]2 | %14
 G,A,B,C D2 [C,E]2 | [D,D]2 [D,C]2 [G,,G,B,]4 |] %16

